logo_gal/trash.svg

<svg xmlns="http://www.w3.org/2000/svg" xmlns:xlink="http://www.w3.org/1999/xlink" viewBox="0 0 100 125" version="1.1" x="0px" y="0px"><title>Delete 3.5</title><desc>Created with Sketch.</desc><g stroke="none" stroke-width="1" fill="none" fill-rule="evenodd"><g fill-rule="nonzero" fill="#000000"><path d="M63.1151663,22.0297957 C63.2491236,22.5656247 63.7998922,23 64.3503319,23 L75,23 C76.9329966,23 78.5,24.5670034 78.5,26.5 C78.5,28.0961251 77.431581,29.4427076 75.9709104,29.8635801 L74.1431343,80.1274212 C73.9942947,84.2205125 70.5935926,87.5 66.4940966,87.5 L33.5059034,87.5 C29.412371,87.5 26.005437,84.2131333 25.8568657,80.1274212 L24.0290896,29.8635801 C22.568419,29.4427076 21.5,28.0961251 21.5,26.5 C21.5,24.5670034 23.0670034,23 25,23 L35.6496681,23 C36.1978739,23 36.7521801,22.5604101 36.8848337,22.0297957 L37.6337944,19.0339527 C38.559233,15.3321983 42.1820122,12.5 45.9962027,12.5 L54.0037973,12.5 C57.8183825,12.5 61.4403133,15.3303835 62.3662056,19.0339527 L63.1151663,22.0297957 Z M47.5,39 L47.5,73 C47.5,74.3807119 48.6192881,75.5 50,75.5 C51.3807119,75.5 52.5,74.3807119 52.5,73 L52.5,39 C52.5,37.6192881 51.3807119,36.5 50,36.5 C48.6192881,36.5 47.5,37.6192881 47.5,39 Z M36.0010806,39.0734976 L37.0010806,73.0734976 C37.0416722,74.4536127 38.1933826,75.539511 39.5734976,75.4989194 C40.9536127,75.4583278 42.039511,74.3066174 41.9989194,72.9265024 L40.9989194,38.9265024 C40.9583278,37.5463873 39.8066174,36.460489 38.4265024,36.5010806 C37.0463873,36.5416722 35.960489,37.6933826 36.0010806,39.0734976 Z M59.0010806,38.9265024 L58.0010806,72.9265024 C57.960489,74.3066174 59.0463873,75.4583278 60.4265024,75.4989194 C61.8066174,75.539511 62.9583278,74.4536127 62.9989194,73.0734976 L63.9989194,39.0734976 C64.039511,37.6933826 62.9536127,36.5416722 61.5734976,36.5010806 C60.1933826,36.460489 59.0416722,37.5463873 59.0010806,38.9265024 Z M44.3545019,23 L55.6454981,23 C55.9185743,23 56.0884395,22.7846276 56.0220207,22.5189524 L55.5752081,20.7317021 C55.4280623,20.143119 54.6050882,19.5 54.0037973,19.5 L45.9962027,19.5 C45.3958769,19.5 44.5716219,20.1443819 44.4247919,20.7317021 L43.9779793,22.5189524 C43.91005,22.7906698 44.0801354,23 44.3545019,23 Z"/></g></g><text x="0" y="115" fill="#000000" font-size="5px" font-weight="bold" font-family="'Helvetica Neue', Helvetica, Arial-Unicode, Arial, Sans-serif">Created by Landan Lloyd</text><text x="0" y="120" fill="#000000" font-size="5px" font-weight="bold" font-family="'Helvetica Neue', Helvetica, Arial-Unicode, Arial, Sans-serif">from the Noun Project</text></svg>

<?xml version="1.0" encoding="utf-8"?>
<!-- Generator: Adobe Illustrator 22.1.0, SVG Export Plug-In . SVG Version: 6.00 Build 0)  -->
<svg version="1.1" id="Layer_1" xmlns="http://www.w3.org/2000/svg" xmlns:xlink="http://www.w3.org/1999/xlink" x="0px" y="0px"
	 viewBox="0 0 100 125" style="enable-background:new 0 0 100 125;" xml:space="preserve">
<title>Delete 3.5</title>
<desc>Created with Sketch.</desc>
<g>
	<g>
		<path d="M63.1,22c0.1,0.5,0.7,1,1.2,1H75c1.9,0,3.5,1.6,3.5,3.5c0,1.6-1.1,2.9-2.5,3.4l-1.8,50.3c-0.1,4.1-3.5,7.4-7.6,7.4h-33
			c-4.1,0-7.5-3.3-7.6-7.4L24,29.9c-1.5-0.4-2.5-1.8-2.5-3.4c0-1.9,1.6-3.5,3.5-3.5h10.6c0.5,0,1.1-0.4,1.2-1l0.7-3
			c0.9-3.7,4.5-6.5,8.4-6.5h8c3.8,0,7.4,2.8,8.4,6.5L63.1,22z M47.5,39v34c0,1.4,1.1,2.5,2.5,2.5s2.5-1.1,2.5-2.5V39
			c0-1.4-1.1-2.5-2.5-2.5S47.5,37.6,47.5,39z M36,39.1l1,34c0,1.4,1.2,2.5,2.6,2.4c1.4,0,2.5-1.2,2.4-2.6l-1-34
			c0-1.4-1.2-2.5-2.6-2.4S36,37.7,36,39.1z M59,38.9l-1,34c0,1.4,1,2.5,2.4,2.6c1.4,0,2.5-1,2.6-2.4l1-34c0-1.4-1-2.5-2.4-2.6
			S59,37.5,59,38.9z M44.4,23h11.3c0.3,0,0.4-0.2,0.4-0.5l-0.4-1.8c-0.1-0.6-1-1.2-1.6-1.2h-8c-0.6,0-1.4,0.6-1.6,1.2L44,22.5
			C43.9,22.8,44.1,23,44.4,23z"/>
	</g>
</g>
</svg>
